;FLAVOR:Marlin
;TIME:10141
;Filament used: 11.3068m
;Layer height: 0.3
;MINX:108.433
;MINY:55
;MINZ:0.3
;MAXX:138.433
;MAXY:154.999
;MAXZ:24.975
;Generated with Cura_SteamEngine 4.10.0
M82 ;absolute extrusion mode
G21                                        ; metric values 
G90                                        ; absolute positioning 
M82                                        ; set extruder to absolute mode 
M107                                       ; start with the fan off 
M140 S60           ; Start heating the bed 
G4 S60                                     ; wait 1 minute 
M104 S210         ; start heating the hot end 
M190 S60           ; wait for bed 
M109 S210         ; wait for hotend 
M300 S1000 P500                            ; BEEP heating done 
G28 X0 Y10 Z0                              ; move X/Y to min endstops 
M420 S1                                    ; Enable leveling 
M420 Z2.0                                  ; Set leveling fading height to 2 mm 
G0 Z0.15                                   ; lift nozzle a bit 
G92 E0                                     ; zero the extruded length 
G1 X50 E25 F500                            ; Extrude 25mm of filament in a 5cm line. 
G92 E0                                     ; zero the extruded length again 
G1 E-2 F500                                ; Retract a little 
G1 X120 F4000                              ; Quickly wipe away from the filament line`
G92 E0
G92 E0
G1 F1500 E-6
;LAYER_COUNT:83
;LAYER:0
M106 S76.5
M205 X10 Y10
G1 F600 Z0.375
;MESH:?????????1.stl
G0 F6000 X137.434 Y154 Z0.375
M205 X8 Y8
;TYPE:WALL-INNER
G1 F600 Z0.3
G1 F1500 E0
G1 F1200 X109.434 Y154 E1.39693
G1 X109.434 Y56 E6.28617
G1 X137.434 Y56 E7.68309
G1 X137.434 Y154 E12.57233
M205 X10 Y10
G0 F6000 X137.834 Y154.4
M205 X8 Y8
G1 F1200 X109.034 Y154.4 E14.00917
G1 X109.034 Y55.6 E18.93832
G1 X137.834 Y55.6 E20.37516
G1 X137.834 Y154.4 E25.30431
M205 X10 Y10
G0 F6000 X138.234 Y154.8
M205 X8 Y8
;TYPE:WALL-OUTER
G1 F1200 X108.634 Y154.8 E26.78106
G1 X108.634 Y55.2 E31.75012
G1 X138.234 Y55.2 E33.22687
G1 X138.234 Y154.8 E38.19594
M205 X10 Y10
G0 F6000 X138.034 Y154.8
G0 X137.794 Y154.36
G0 X137.044 Y153.61
M205 X8 Y8
;TYPE:SKIN
G1 F1200 X109.824 Y153.61 E39.55395
G1 X109.824 Y56.39 E44.40428
G1 X137.044 Y56.39 E45.76229
G1 X137.044 Y153.61 E50.61261
M205 X10 Y10
G1 F1500 E44.61261
G1 F600 Z0.375
G0 F6000 X110.436 Y153.428 Z0.375
M205 X8 Y8
G1 F600 Z0.3
G1 F1500 E50.61261
G1 F1200 X110.003 Y152.995 E50.64316
M205 X10 Y10
G0 F6000 X110.003 Y152.429
M205 X8 Y8
G1 F1200 X111.002 Y153.428 E50.71365
M205 X10 Y10
G0 F6000 X111.568 Y153.428
M205 X8 Y8
G1 F1200 X110.003 Y151.863 E50.82407
M205 X10 Y10
G0 F6000 X110.003 Y151.298
M205 X8 Y8
G1 F1200 X112.133 Y153.428 E50.97435
M205 X10 Y10
G0 F6000 X112.699 Y153.428
M205 X8 Y8
G1 F1200 X110.003 Y150.732 E51.16457
M205 X10 Y10
G0 F6000 X110.003 Y150.166
M205 X8 Y8
G1 F1200 X113.265 Y153.428 E51.39472
M205 X10 Y10
G0 F6000 X113.83 Y153.428
M205 X8 Y8
G1 F1200 X110.003 Y149.601 E51.66473
M205 X10 Y10
G0 F6000 X110.003 Y149.035
M205 X8 Y8
G1 F1200 X114.396 Y153.428 E51.97468
M205 X10 Y10
G0 F6000 X114.962 Y153.428
M205 X8 Y8
G1 F1200 X110.003 Y148.469 E52.32457
M205 X10 Y10
G0 F6000 X110.003 Y147.904
M205 X8 Y8
G1 F1200 X115.527 Y153.428 E52.71432
M205 X10 Y10
G0 F6000 X116.093 Y153.428
M205 X8 Y8
G1 F1200 X110.003 Y147.338 E53.144
M205 X10 Y10
G0 F6000 X110.003 Y146.772
M205 X8 Y8
G1 F1200 X116.659 Y153.428 E53.61362
M205 X10 Y10
G0 F6000 X117.224 Y153.428
M205 X8 Y8
G1 F1200 X110.003 Y146.207 E54.1231
M205 X10 Y10
G0 F6000 X110.003 Y145.641
M205 X8 Y8
G1 F1200 X117.79 Y153.428 E54.67251
M205 X10 Y10
G0 F6000 X118.356 Y153.428
M205 X8 Y8
G1 F1200 X110.003 Y145.075 E55.26186
M205 X10 Y10
G0 F6000 X110.003 Y144.509
M205 X8 Y8
G1 F1200 X118.921 Y153.428 E55.89111
M205 X10 Y10
G0 F6000 X119.487 Y153.428
M205 X8 Y8
G1 F1200 X110.003 Y143.944 E56.56026
M205 X10 Y10
G0 F6000 X110.003 Y143.378
M205 X8 Y8
G1 F1200 X120.053 Y153.428 E57.26934
M205 X10 Y10
G0 F6000 X120.618 Y153.428
M205 X8 Y8
G1 F1200 X110.003 Y142.812 E58.01832
M205 X10 Y10
G0 F6000 X110.003 Y142.247
M205 X8 Y8
G1 F1200 X121.184 Y153.428 E58.8072
M205 X10 Y10
G0 F6000 X121.75 Y153.428
M205 X8 Y8
G1 F1200 X110.003 Y141.681 E59.63601
M205 X10 Y10
G0 F6000 X110.003 Y141.115
M205 X8 Y8
G1 F1200 X122.316 Y153.428 E60.50476
M205 X10 Y10
G0 F6000 X122.881 Y153.428
M205 X8 Y8
G1 F1200 X110.003 Y140.55 E61.41337
M205 X10 Y10
G0 F6000 X110.003 Y139.984
M205 X8 Y8
G1 F1200 X123.447 Y153.428 E62.36192
M205 X10 Y10
G0 F6000 X124.013 Y153.428
M205 X8 Y8
G1 F1200 X110.003 Y139.418 E63.3504
M205 X10 Y10
G0 F6000 X110.003 Y138.853
M205 X8 Y8
G1 F1200 X124.578 Y153.428 E64.37875
M205 X10 Y10
G0 F6000 X125.144 Y153.428
M205 X8 Y8
G1 F1200 X110.003 Y138.287 E65.44703
M205 X10 Y10
G0 F6000 X110.003 Y137.721
M205 X8 Y8
G1 F1200 X125.71 Y153.428 E66.55524
M205 X10 Y10
G0 F6000 X126.275 Y153.428
M205 X8 Y8
G1 F1200 X110.003 Y137.156 E67.70332
M205 X10 Y10
G0 F6000 X110.003 Y136.59
M205 X8 Y8
G1 F1200 X126.841 Y153.428 E68.89133
M205 X10 Y10
G0 F6000 X127.407 Y153.428
M205 X8 Y8
G1 F1200 X110.003 Y136.024 E70.11928
M205 X10 Y10
G0 F6000 X110.003 Y135.459
M205 X8 Y8
G1 F1200 X127.972 Y153.428 E71.38709
M205 X10 Y10
G0 F6000 X128.538 Y153.428
M205 X8 Y8
G1 F1200 X110.003 Y134.893 E72.69483
M205 X10 Y10
G0 F6000 X110.003 Y134.327
M205 X8 Y8
G1 F1200 X129.104 Y153.428 E74.04251
M205 X10 Y10
G0 F6000 X129.669 Y153.428
M205 X8 Y8
G1 F1200 X110.003 Y133.761 E75.43009
M205 X10 Y10
G0 F6000 X110.003 Y133.196
M205 X8 Y8
G1 F1200 X130.235 Y153.428 E76.85756
M205 X10 Y10
G0 F6000 X130.801 Y153.428
M205 X8 Y8
G1 F1200 X110.003 Y132.63 E78.32498
M205 X10 Y10
G0 F6000 X110.003 Y132.064
M205 X8 Y8
G1 F1200 X131.367 Y153.428 E79.83232
M205 X10 Y10
G0 F6000 X131.932 Y153.428
M205 X8 Y8
G1 F1200 X110.003 Y131.499 E81.37953
M205 X10 Y10
G0 F6000 X110.003 Y130.933
M205 X8 Y8
G1 F1200 X132.498 Y153.428 E82.96667
M205 X10 Y10
G0 F6000 X133.064 Y153.428
M205 X8 Y8
G1 F1200 X110.003 Y130.367 E84.59375
M205 X10 Y10
G0 F6000 X110.003 Y129.802
M205 X8 Y8
G1 F1200 X133.629 Y153.428 E86.26069
M205 X10 Y10
G0 F6000 X134.195 Y153.428
M205 X8 Y8
G1 F1200 X110.003 Y129.236 E87.96757
M205 X10 Y10
G0 F6000 X110.003 Y128.67
M205 X8 Y8
G1 F1200 X134.761 Y153.428 E89.71438
M205 X10 Y10
G0 F6000 X135.326 Y153.428
M205 X8 Y8
G1 F1200 X110.003 Y128.105 E91.50106
M205 X10 Y10
G0 F6000 X110.003 Y127.539
M205 X8 Y8
G1 F1200 X135.892 Y153.428 E93.32766
M205 X10 Y10
G0 F6000 X136.458 Y153.428
M205 X8 Y8
G1 F1200 X110.003 Y126.973 E95.19421
M205 X10 Y10
G0 F6000 X110.003 Y126.408
M205 X8 Y8
G1 F1200 X136.864 Y153.268 E97.08936
M205 X10 Y10
G0 F6000 X136.864 Y152.703
M205 X8 Y8
G1 F1200 X110.003 Y125.842 E98.98455
M205 X10 Y10
G0 F6000 X110.003 Y125.276
M205 X8 Y8
G1 F1200 X136.864 Y152.137 E100.87974
M205 X10 Y10
G0 F6000 X136.864 Y151.571
M205 X8 Y8
G1 F1200 X110.003 Y124.711 E102.77489
M205 X10 Y10
G0 F6000 X110.003 Y124.145
M205 X8 Y8
G1 F1200 X136.864 Y151.006 E104.67008
M205 X10 Y10
G0 F6000 X136.864 Y150.44
M205 X8 Y8
G1 F1200 X110.003 Y123.579 E106.56527
M205 X10 Y10
G0 F6000 X110.003 Y123.013
M205 X8 Y8
G1 F1200 X136.864 Y149.874 E108.46046
M205 X10 Y10
G0 F6000 X136.864 Y149.309
M205 X8 Y8
G1 F1200 X110.003 Y122.448 E110.35565
M205 X10 Y10
G0 F6000 X110.003 Y121.882
M205 X8 Y8
G1 F1200 X136.864 Y148.743 E112.25083
M205 X10 Y10
G0 F6000 X136.864 Y148.177
M205 X8 Y8
G1 F1200 X110.003 Y121.316 E114.14602
M205 X10 Y10
G0 F6000 X110.003 Y120.751
M205 X8 Y8
G1 F1200 X136.864 Y147.612 E116.04121
M205 X10 Y10
G0 F6000 X136.864 Y147.046
M205 X8 Y8
G1 F1200 X110.003 Y120.185 E117.9364
M205 X10 Y10
G0 F6000 X110.003 Y119.619
M205 X8 Y8
G1 F1200 X136.864 Y146.48 E119.83159
M205 X10 Y10
G0 F6000 X136.864 Y145.915
M205 X8 Y8
G1 F1200 X110.003 Y119.054 E121.72678
M205 X10 Y10
G0 F6000 X110.003 Y118.488
M205 X8 Y8
G1 F1200 X136.864 Y145.349 E123.62197
M205 X10 Y10
G0 F6000 X136.864 Y144.783
M205 X8 Y8
G1 F1200 X110.003 Y117.922 E125.51715
M205 X10 Y10
G0 F6000 X110.003 Y117.357
M205 X8 Y8
G1 F1200 X136.864 Y144.217 E127.41231
M205 X10 Y10
G0 F6000 X136.864 Y143.652
M205 X8 Y8
G1 F1200 X110.003 Y116.791 E129.3075
M205 X10 Y10
G0 F6000 X110.003 Y116.225
M205 X8 Y8
G1 F1200 X136.864 Y143.086 E131.20269
M205 X10 Y10
G0 F6000 X136.864 Y142.52
M205 X8 Y8
G1 F1200 X110.003 Y115.66 E133.09784
M205 X10 Y10
G0 F6000 X110.003 Y115.094
M205 X8 Y8
G1 F1200 X136.864 Y141.955 E134.99303
M205 X10 Y10
G0 F6000 X136.864 Y141.389
M205 X8 Y8
G1 F1200 X110.003 Y114.528 E136.88822
M205 X10 Y10
G0 F6000 X110.003 Y113.962
M205 X8 Y8
G1 F1200 X136.864 Y140.823 E138.7834
M205 X10 Y10
G0 F6000 X136.864 Y140.258
M205 X8 Y8
G1 F1200 X110.003 Y113.397 E140.67859
M205 X10 Y10
G0 F6000 X110.003 Y112.831
M205 X8 Y8
G1 F1200 X136.864 Y139.692 E142.57378
M205 X10 Y10
G0 F6000 X136.864 Y139.126
M205 X8 Y8
G1 F1200 X110.003 Y112.265 E144.46897
M205 X10 Y10
G0 F6000 X110.003 Y111.7
M205 X8 Y8
G1 F1200 X136.864 Y138.561 E146.36416
M205 X10 Y10
G0 F6000 X136.864 Y137.995
M205 X8 Y8
G1 F1200 X110.003 Y111.134 E148.25935
M205 X10 Y10
G0 F6000 X110.003 Y110.568
M205 X8 Y8
G1 F1200 X136.864 Y137.429 E150.15454
M205 X10 Y10
G0 F6000 X136.864 Y136.864
M205 X8 Y8
G1 F1200 X110.003 Y110.003 E152.04972
M205 X10 Y10
G0 F6000 X110.003 Y109.437
M205 X8 Y8
G1 F1200 X136.864 Y136.298 E153.94491
M205 X10 Y10
G0 F6000 X136.864 Y135.732
M205 X8 Y8
G1 F1200 X110.003 Y108.871 E155.8401
M205 X10 Y10
G0 F6000 X110.003 Y108.306
M205 X8 Y8
G1 F1200 X136.864 Y135.166 E157.73526
M205 X10 Y10
G0 F6000 X136.864 Y134.601
M205 X8 Y8
G1 F1200 X110.003 Y107.74 E159.63044
M205 X10 Y10
G0 F6000 X110.003 Y107.174
M205 X8 Y8
G1 F1200 X136.864 Y134.035 E161.52563
M205 X10 Y10
G0 F6000 X136.864 Y133.469
M205 X8 Y8
G1 F1200 X110.003 Y106.609 E163.42079
M205 X10 Y10
G0 F6000 X110.003 Y106.043
M205 X8 Y8
G1 F1200 X136.864 Y132.904 E165.31597
M205 X10 Y10
G0 F6000 X136.864 Y132.338
M205 X8 Y8
G1 F1200 X110.003 Y105.477 E167.21116
M205 X10 Y10
G0 F6000 X110.003 Y104.912
M205 X8 Y8
G1 F1200 X136.864 Y131.772 E169.10632
M205 X10 Y10
G0 F6000 X136.864 Y131.207
M205 X8 Y8
G1 F1200 X110.003 Y104.346 E171.00151
M205 X10 Y10
G0 F6000 X110.003 Y103.78
M205 X8 Y8
G1 F1200 X136.864 Y130.641 E172.89669
M205 X10 Y10
G0 F6000 X136.864 Y130.075
M205 X8 Y8
G1 F1200 X110.003 Y103.214 E174.79188
M205 X10 Y10
G0 F6000 X110.003 Y102.649
M205 X8 Y8
G1 F1200 X136.864 Y129.51 E176.68707
M205 X10 Y10
G0 F6000 X136.864 Y128.944
M205 X8 Y8
G1 F1200 X110.003 Y102.083 E178.58226
M205 X10 Y10
G0 F6000 X110.003 Y101.517
M205 X8 Y8
G1 F1200 X136.864 Y128.378 E180.47745
M205 X10 Y10
G0 F6000 X136.864 Y127.813
M205 X8 Y8
G1 F1200 X110.003 Y100.952 E182.37264
M205 X10 Y10
G0 F6000 X110.003 Y100.386
M205 X8 Y8
G1 F1200 X136.864 Y127.247 E184.26783
M205 X10 Y10
G0 F6000 X136.864 Y126.681
M205 X8 Y8
G1 F1200 X110.003 Y99.82 E186.16301
M205 X10 Y10
G0 F6000 X110.003 Y99.255
M205 X8 Y8
G1 F1200 X136.864 Y126.116 E188.0582
M205 X10 Y10
G0 F6000 X136.864 Y125.55
M205 X8 Y8
G1 F1200 X110.003 Y98.689 E189.95339
M205 X10 Y10
G0 F6000 X110.003 Y98.123
M205 X8 Y8
G1 F1200 X136.864 Y124.984 E191.84858
M205 X10 Y10
G0 F6000 X136.864 Y124.418
M205 X8 Y8
G1 F1200 X110.003 Y97.558 E193.74373
M205 X10 Y10
G0 F6000 X110.003 Y96.992
M205 X8 Y8
G1 F1200 X136.864 Y123.853 E195.63892
M205 X10 Y10
G0 F6000 X136.864 Y123.287
M205 X8 Y8
G1 F1200 X110.003 Y96.426 E197.53411
M205 X10 Y10
G0 F6000 X110.003 Y95.861
M205 X8 Y8
G1 F1200 X136.864 Y122.721 E199.42926
M205 X10 Y10
G0 F6000 X136.864 Y122.156
M205 X8 Y8
G1 F1200 X110.003 Y95.295 E201.32445
M205 X10 Y10
G0 F6000 X110.003 Y94.729
M205 X8 Y8
G1 F1200 X136.864 Y121.59 E203.21964
M205 X10 Y10
G0 F6000 X136.864 Y121.024
M205 X8 Y8
G1 F1200 X110.003 Y94.163 E205.11483
M205 X10 Y10
G0 F6000 X110.003 Y93.598
M205 X8 Y8
G1 F1200 X136.864 Y120.459 E207.01002
M205 X10 Y10
G0 F6000 X136.864 Y119.893
M205 X8 Y8
G1 F1200 X110.003 Y93.032 E208.90521
M205 X10 Y10
G0 F6000 X110.003 Y92.466
M205 X8 Y8
G1 F1200 X136.864 Y119.327 E210.8004
M205 X10 Y10
G0 F6000 X136.864 Y118.762
M205 X8 Y8
G1 F1200 X110.003 Y91.901 E212.69558
M205 X10 Y10
G0 F6000 X110.003 Y91.335
M205 X8 Y8
G1 F1200 X136.864 Y118.196 E214.59077
M205 X10 Y10
G0 F6000 X136.864 Y117.63
M205 X8 Y8
G1 F1200 X110.003 Y90.769 E216.48596
M205 X10 Y10
G0 F6000 X110.003 Y90.204
M205 X8 Y8
G1 F1200 X136.864 Y117.065 E218.38115
M205 X10 Y10
G0 F6000 X136.864 Y116.499
M205 X8 Y8
G1 F1200 X110.003 Y89.638 E220.27634
M205 X10 Y10
G0 F6000 X110.003 Y89.072
M205 X8 Y8
G1 F1200 X136.864 Y115.933 E222.17153
M205 X10 Y10
G0 F6000 X136.864 Y115.368
M205 X8 Y8
G1 F1200 X110.003 Y88.507 E224.06672
M205 X10 Y10
G0 F6000 X110.003 Y87.941
M205 X8 Y8
G1 F1200 X136.864 Y114.802 E225.9619
M205 X10 Y10
G0 F6000 X136.864 Y114.236
M205 X8 Y8
G1 F1200 X110.003 Y87.375 E227.85709
M205 X10 Y10
G0 F6000 X110.003 Y86.81
M205 X8 Y8
G1 F1200 X136.864 Y113.67 E229.75225
M205 X10 Y10
G0 F6000 X136.864 Y113.105
M205 X8 Y8
G1 F1200 X110.003 Y86.244 E231.64744
M205 X10 Y10
G0 F6000 X110.003 Y85.678
M205 X8 Y8
G1 F1200 X136.864 Y112.539 E233.54262
M205 X10 Y10
G0 F6000 X136.864 Y111.973
M205 X8 Y8
G1 F1200 X110.003 Y85.113 E235.43778
M205 X10 Y10
G0 F6000 X110.003 Y84.547
M205 X8 Y8
G1 F1200 X136.864 Y111.408 E237.33297
M205 X10 Y10
G0 F6000 X136.864 Y110.842
M205 X8 Y8
G1 F1200 X110.003 Y83.981 E239.22815
M205 X10 Y10
G0 F6000 X110.003 Y83.415
M205 X8 Y8
G1 F1200 X136.864 Y110.276 E241.12334
M205 X10 Y10
G0 F6000 X136.864 Y109.711
M205 X8 Y8
G1 F1200 X110.003 Y82.85 E243.01853
M205 X10 Y10
G0 F6000 X110.003 Y82.284
M205 X8 Y8
G1 F1200 X136.864 Y109.145 E244.91372
M205 X10 Y10
G0 F6000 X136.864 Y108.579
M205 X8 Y8
G1 F1200 X110.003 Y81.718 E246.80891
M205 X10 Y10
G0 F6000 X110.003 Y81.153
M205 X8 Y8
G1 F1200 X136.864 Y108.014 E248.7041
M205 X10 Y10
G0 F6000 X136.864 Y107.448
M205 X8 Y8
G1 F1200 X110.003 Y80.587 E250.59929
M205 X10 Y10
G0 F6000 X110.003 Y80.021
M205 X8 Y8
G1 F1200 X136.864 Y106.882 E252.49448
M205 X10 Y10
G0 F6000 X136.864 Y106.317
M205 X8 Y8
G1 F1200 X110.003 Y79.456 E254.38966
M205 X10 Y10
G0 F6000 X110.003 Y78.89
M205 X8 Y8
G1 F1200 X136.864 Y105.751 E256.28485
M205 X10 Y10
G0 F6000 X136.864 Y105.185
M205 X8 Y8
G1 F1200 X110.003 Y78.324 E258.18004
M205 X10 Y10
G0 F6000 X110.003 Y77.759
M205 X8 Y8
G1 F1200 X136.864 Y104.619 E260.07519
M205 X10 Y10
G0 F6000 X136.864 Y104.054
M205 X8 Y8
G1 F1200 X110.003 Y77.193 E261.97038
M205 X10 Y10
G0 F6000 X110.003 Y76.627
M205 X8 Y8
G1 F1200 X136.864 Y103.488 E263.86557
M205 X10 Y10
G0 F6000 X136.864 Y102.922
M205 X8 Y8
G1 F1200 X110.003 Y76.062 E265.76073
M205 X10 Y10
G0 F6000 X110.003 Y75.496
M205 X8 Y8
G1 F1200 X136.864 Y102.357 E267.65591
M205 X10 Y10
G0 F6000 X136.864 Y101.791
M205 X8 Y8
G1 F1200 X110.003 Y74.93 E269.5511
M205 X10 Y10
G0 F6000 X110.003 Y74.365
M205 X8 Y8
G1 F1200 X136.864 Y101.225 E271.44626
M205 X10 Y10
G0 F6000 X136.864 Y100.66
M205 X8 Y8
G1 F1200 X110.003 Y73.799 E273.34144
M205 X10 Y10
G0 F6000 X110.003 Y73.233
M205 X8 Y8
G1 F1200 X136.864 Y100.094 E275.23663
M205 X10 Y10
G0 F6000 X136.864 Y99.528
M205 X8 Y8
G1 F1200 X110.003 Y72.667 E277.13182
M205 X10 Y10
G0 F6000 X110.003 Y72.102
M205 X8 Y8
G1 F1200 X136.864 Y98.963 E279.02701
M205 X10 Y10
G0 F6000 X136.864 Y98.397
M205 X8 Y8
G1 F1200 X110.003 Y71.536 E280.9222
M205 X10 Y10
G0 F6000 X110.003 Y70.97
M205 X8 Y8
G1 F1200 X136.864 Y97.831 E282.81739
M205 X10 Y10
G0 F6000 X136.864 Y97.266
M205 X8 Y8
G1 F1200 X110.003 Y70.405 E284.71258
M205 X10 Y10
G0 F6000 X110.003 Y69.839
M205 X8 Y8
G1 F1200 X136.864 Y96.7 E286.60776
M205 X10 Y10
G0 F6000 X136.864 Y96.134
M205 X8 Y8
G1 F1200 X110.003 Y69.273 E288.50295
M205 X10 Y10
G0 F6000 X110.003 Y68.708
M205 X8 Y8
G1 F1200 X136.864 Y95.569 E290.39814
M205 X10 Y10
G0 F6000 X136.864 Y95.003
M205 X8 Y8
G1 F1200 X110.003 Y68.142 E292.29333
M205 X10 Y10
G0 F6000 X110.003 Y67.576
M205 X8 Y8
G1 F1200 X136.864 Y94.437 E294.18852
M205 X10 Y10
G0 F6000 X136.864 Y93.871
M205 X8 Y8
G1 F1200 X110.003 Y67.011 E296.08367
M205 X10 Y10
G0 F6000 X110.003 Y66.445
M205 X8 Y8
G1 F1200 X136.864 Y93.306 E297.97886
M205 X10 Y10
G0 F6000 X136.864 Y92.74
M205 X8 Y8
