;FLAVOR:Marlin
;TIME:6073
;Filament used: 6.53926m
;Layer height: 0.3
;MINX:79.66
;MINY:73.609
;MINZ:0.3
;MAXX:117.076
;MAXY:136.389
;MAXZ:23.175
;Generated with Cura_SteamEngine 4.10.0
M82 ;absolute extrusion mode
G21                                        ; metric values 
G90                                        ; absolute positioning 
M82                                        ; set extruder to absolute mode 
M107                                       ; start with the fan off 
M140 S60           ; Start heating the bed 
G4 S60                                     ; wait 1 minute 
M104 S210         ; start heating the hot end 
M190 S60           ; wait for bed 
M109 S210         ; wait for hotend 
M300 S1000 P500                            ; BEEP heating done 
G28 X0 Y10 Z0                              ; move X/Y to min endstops 
M420 S1                                    ; Enable leveling 
M420 Z2.0                                  ; Set leveling fading height to 2 mm 
G0 Z0.15                                   ; lift nozzle a bit 
G92 E0                                     ; zero the extruded length 
G1 X50 E25 F500                            ; Extrude 25mm of filament in a 5cm line. 
G92 E0                                     ; zero the extruded length again 
G1 E-2 F500                                ; Retract a little 
G1 X120 F4000                              ; Quickly wipe away from the filament line`
G92 E0
G92 E0
G1 F1500 E-6
;LAYER_COUNT:77
;LAYER:0
M106 S76.5
M205 X10 Y10
G1 F600 Z0.375
;MESH:?????????3.stl(1)
G0 F6000 X83.965 Y118.904 Z0.375
M205 X8 Y8
;TYPE:WALL-INNER
G1 F600 Z0.3
G1 F1500 E0
G1 F1200 X83.165 Y118.975 E0.04007
G1 X82.967 Y118.992 E0.04998
G1 X82.95 Y118.794 E0.05638
G1 X80.526 Y91.096 E1.44352
G1 X81.327 Y91.025 E1.48364
G1 X81.525 Y91.008 E1.49355
G1 X81.542 Y91.206 E1.49995
G1 X83.965 Y118.904 E2.88709
M205 X10 Y10
G0 F6000 X84.398 Y119.267
M205 X8 Y8
G1 F1200 X83.003 Y119.389 E2.95695
G1 X82.604 Y119.425 E2.97694
G1 X82.57 Y119.027 E2.99687
G1 X80.093 Y90.733 E4.41386
G1 X81.489 Y90.611 E4.48377
G1 X81.888 Y90.575 E4.50376
G1 X81.922 Y90.973 E4.52369
G1 X84.398 Y119.267 E5.94067
M205 X10 Y10
G0 F6000 X84.831 Y119.63
M205 X8 Y8
;TYPE:WALL-OUTER
G1 F1200 X82.241 Y119.858 E6.07039
G1 X79.66 Y90.37 E7.54718
G1 X82.251 Y90.142 E7.67694
G1 X84.831 Y119.63 E9.15372
M205 X10 Y10
G0 F6000 X84.632 Y119.647
G0 X84.354 Y119.229
G0 X83.543 Y118.55
M205 X8 Y8
;TYPE:SKIN
G1 F1200 X83.321 Y118.569 E9.16484
G1 X80.948 Y91.45 E10.52298
G1 X81.171 Y91.431 E10.53415
G1 X83.543 Y118.55 E11.89229
M205 X10 Y10
G1 F1500 E5.89229
G1 F600 Z0.375
;MESH:?????????2.stl
G0 F6000 X116.276 Y135.39 Z0.375
M205 X8 Y8
;TYPE:WALL-INNER
G1 F600 Z0.3
G1 F1500 E11.89229
G1 F1200 X92.776 Y135.39 E13.06471
G1 X92.776 Y74.61 E16.09703
G1 X116.276 Y74.61 E17.26945
G1 X116.276 Y135.39 E20.30178
M205 X10 Y10
G0 F6000 X116.676 Y135.79
M205 X8 Y8
G1 F1200 X92.376 Y135.79 E21.51411
G1 X92.376 Y74.21 E24.58635
G1 X116.676 Y74.21 E25.79868
G1 X116.676 Y135.79 E28.87092
M205 X10 Y10
G0 F6000 X117.076 Y136.19
M205 X8 Y8
;TYPE:WALL-OUTER
G1 F1200 X91.976 Y136.19 E30.12316
G1 X91.976 Y73.81 E33.23531
G1 X117.076 Y73.81 E34.48756
G1 X117.076 Y136.19 E37.59971
M205 X10 Y10
G0 F6000 X116.876 Y136.19
G0 X116.636 Y135.75
G0 X115.886 Y135
M205 X8 Y8
;TYPE:SKIN
G1 F1200 X93.166 Y135 E38.73321
G1 X93.166 Y75 E41.72663
G1 X115.886 Y75 E42.86013
G1 X115.886 Y135 E45.85354
M205 X10 Y10
G1 F1500 E39.85354
G1 F600 Z0.375
G0 F6000 X93.524 Y134.819 Z0.375
M205 X8 Y8
G1 F600 Z0.3
G1 F1500 E45.85354
G1 F1200 X93.345 Y134.64 E45.86617
M205 X10 Y10
G0 F6000 X93.345 Y134.074
M205 X8 Y8
G1 F1200 X94.089 Y134.819 E45.9187
M205 X10 Y10
G0 F6000 X94.655 Y134.819
M205 X8 Y8
G1 F1200 X93.345 Y133.508 E46.01117
M205 X10 Y10
G0 F6000 X93.345 Y132.943
M205 X8 Y8
G1 F1200 X95.221 Y134.819 E46.14353
M205 X10 Y10
G0 F6000 X95.786 Y134.819
M205 X8 Y8
G1 F1200 X93.345 Y132.377 E46.31579
M205 X10 Y10
G0 F6000 X93.345 Y131.811
M205 X8 Y8
G1 F1200 X96.352 Y134.819 E46.52798
M205 X10 Y10
G0 F6000 X96.918 Y134.819
M205 X8 Y8
G1 F1200 X93.345 Y131.246 E46.78008
M205 X10 Y10
G0 F6000 X93.345 Y130.68
M205 X8 Y8
G1 F1200 X97.483 Y134.819 E47.07207
M205 X10 Y10
G0 F6000 X98.049 Y134.819
M205 X8 Y8
G1 F1200 X93.345 Y130.114 E47.404
M205 X10 Y10
G0 F6000 X93.345 Y129.549
M205 X8 Y8
G1 F1200 X98.615 Y134.819 E47.77583
M205 X10 Y10
G0 F6000 X99.18 Y134.819
M205 X8 Y8
G1 F1200 X93.345 Y128.983 E48.18755
M205 X10 Y10
G0 F6000 X93.345 Y128.417
M205 X8 Y8
G1 F1200 X99.746 Y134.819 E48.63921
M205 X10 Y10
G0 F6000 X100.312 Y134.819
M205 X8 Y8
G1 F1200 X93.345 Y127.851 E49.13081
M205 X10 Y10
G0 F6000 X93.345 Y127.286
M205 X8 Y8
G1 F1200 X100.877 Y134.819 E49.66227
M205 X10 Y10
G0 F6000 X101.443 Y134.819
M205 X8 Y8
G1 F1200 X93.345 Y126.72 E50.23366
M205 X10 Y10
G0 F6000 X93.345 Y126.154
M205 X8 Y8
G1 F1200 X102.009 Y134.819 E50.84499
M205 X10 Y10
G0 F6000 X102.575 Y134.819
M205 X8 Y8
G1 F1200 X93.345 Y125.589 E51.49621
M205 X10 Y10
G0 F6000 X93.345 Y125.023
M205 X8 Y8
G1 F1200 X103.14 Y134.819 E52.18734
M205 X10 Y10
G0 F6000 X103.706 Y134.819
M205 X8 Y8
G1 F1200 X93.345 Y124.457 E52.9184
M205 X10 Y10
G0 F6000 X93.345 Y123.892
M205 X8 Y8
G1 F1200 X104.272 Y134.819 E53.68936
M205 X10 Y10
G0 F6000 X104.837 Y134.819
M205 X8 Y8
G1 F1200 X93.345 Y123.326 E54.50021
M205 X10 Y10
G0 F6000 X93.345 Y122.76
M205 X8 Y8
G1 F1200 X105.403 Y134.819 E55.35101
M205 X10 Y10
G0 F6000 X105.969 Y134.819
M205 X8 Y8
G1 F1200 X93.345 Y122.195 E56.2417
M205 X10 Y10
G0 F6000 X93.345 Y121.629
M205 X8 Y8
G1 F1200 X106.534 Y134.819 E57.17229
M205 X10 Y10
G0 F6000 X107.1 Y134.819
M205 X8 Y8
G1 F1200 X93.345 Y121.063 E58.14281
M205 X10 Y10
G0 F6000 X93.345 Y120.498
M205 X8 Y8
G1 F1200 X107.666 Y134.819 E59.15324
M205 X10 Y10
G0 F6000 X108.231 Y134.819
M205 X8 Y8
G1 F1200 X93.345 Y119.932 E60.20356
M205 X10 Y10
G0 F6000 X93.345 Y119.366
M205 X8 Y8
G1 F1200 X108.797 Y134.819 E61.29382
M205 X10 Y10
G0 F6000 X109.363 Y134.819
M205 X8 Y8
G1 F1200 X93.345 Y118.801 E62.42397
M205 X10 Y10
G0 F6000 X93.345 Y118.235
M205 X8 Y8
G1 F1200 X109.928 Y134.819 E63.59403
M205 X10 Y10
G0 F6000 X110.494 Y134.819
M205 X8 Y8
G1 F1200 X93.345 Y117.669 E64.80402
M205 X10 Y10
G0 F6000 X93.345 Y117.103
M205 X8 Y8
G1 F1200 X111.06 Y134.819 E66.05394
M205 X10 Y10
G0 F6000 X111.625 Y134.819
M205 X8 Y8
G1 F1200 X93.345 Y116.538 E67.34373
M205 X10 Y10
G0 F6000 X93.345 Y115.972
M205 X8 Y8
G1 F1200 X112.191 Y134.819 E68.67345
M205 X10 Y10
G0 F6000 X112.757 Y134.819
M205 X8 Y8
G1 F1200 X93.345 Y115.406 E70.04311
M205 X10 Y10
G0 F6000 X93.345 Y114.841
M205 X8 Y8
G1 F1200 X113.323 Y134.819 E71.45267
M205 X10 Y10
G0 F6000 X113.888 Y134.819
M205 X8 Y8
G1 F1200 X93.345 Y114.275 E72.90212
M205 X10 Y10
G0 F6000 X93.345 Y113.709
M205 X8 Y8
G1 F1200 X114.454 Y134.819 E74.39151
M205 X10 Y10
G0 F6000 X115.02 Y134.819
M205 X8 Y8
G1 F1200 X93.345 Y113.144 E75.9208
M205 X10 Y10
G0 F6000 X93.345 Y112.578
M205 X8 Y8
G1 F1200 X115.585 Y134.819 E77.48999
M205 X10 Y10
G0 F6000 X115.706 Y134.373
M205 X8 Y8
G1 F1200 X93.345 Y112.012 E79.06768
M205 X10 Y10
G0 F6000 X93.345 Y111.447
M205 X8 Y8
G1 F1200 X115.706 Y133.807 E80.64533
M205 X10 Y10
G0 F6000 X115.706 Y133.242
M205 X8 Y8
G1 F1200 X93.345 Y110.881 E82.22302
M205 X10 Y10
G0 F6000 X93.345 Y110.315
M205 X8 Y8
G1 F1200 X115.706 Y132.676 E83.80071
M205 X10 Y10
G0 F6000 X115.706 Y132.11
M205 X8 Y8
G1 F1200 X93.345 Y109.75 E85.37836
M205 X10 Y10
G0 F6000 X93.345 Y109.184
M205 X8 Y8
G1 F1200 X115.706 Y131.545 E86.95605
M205 X10 Y10
G0 F6000 X115.706 Y130.979
M205 X8 Y8
G1 F1200 X93.345 Y108.618 E88.53374
M205 X10 Y10
G0 F6000 X93.345 Y108.052
M205 X8 Y8
G1 F1200 X115.706 Y130.413 E90.11143
M205 X10 Y10
G0 F6000 X115.706 Y129.848
M205 X8 Y8
G1 F1200 X93.345 Y107.487 E91.68912
M205 X10 Y10
G0 F6000 X93.345 Y106.921
M205 X8 Y8
G1 F1200 X115.706 Y129.282 E93.26681
M205 X10 Y10
G0 F6000 X115.706 Y128.716
M205 X8 Y8
G1 F1200 X93.345 Y106.355 E94.8445
M205 X10 Y10
G0 F6000 X93.345 Y105.79
M205 X8 Y8
G1 F1200 X115.706 Y128.151 E96.42219
M205 X10 Y10
G0 F6000 X115.706 Y127.585
M205 X8 Y8
G1 F1200 X93.345 Y105.224 E97.99988
M205 X10 Y10
G0 F6000 X93.345 Y104.658
M205 X8 Y8
G1 F1200 X115.706 Y127.019 E99.57757
M205 X10 Y10
G0 F6000 X115.706 Y126.454
M205 X8 Y8
G1 F1200 X93.345 Y104.093 E101.15526
M205 X10 Y10
G0 F6000 X93.345 Y103.527
M205 X8 Y8
G1 F1200 X115.706 Y125.888 E102.73295
M205 X10 Y10
G0 F6000 X115.706 Y125.322
M205 X8 Y8
G1 F1200 X93.345 Y102.961 E104.31063
M205 X10 Y10
G0 F6000 X93.345 Y102.396
M205 X8 Y8
G1 F1200 X115.706 Y124.756 E105.88829
M205 X10 Y10
G0 F6000 X115.706 Y124.191
M205 X8 Y8
G1 F1200 X93.345 Y101.83 E107.46598
M205 X10 Y10
G0 F6000 X93.345 Y101.264
M205 X8 Y8
G1 F1200 X115.706 Y123.625 E109.04367
M205 X10 Y10
G0 F6000 X115.706 Y123.059
M205 X8 Y8
G1 F1200 X93.345 Y100.699 E110.62132
M205 X10 Y10
G0 F6000 X93.345 Y100.133
M205 X8 Y8
G1 F1200 X115.706 Y122.494 E112.19901
M205 X10 Y10
G0 F6000 X115.706 Y121.928
M205 X8 Y8
G1 F1200 X93.345 Y99.567 E113.7767
M205 X10 Y10
G0 F6000 X93.345 Y99.002
M205 X8 Y8
G1 F1200 X115.706 Y121.362 E115.35435
M205 X10 Y10
G0 F6000 X115.706 Y120.797
M205 X8 Y8
G1 F1200 X93.345 Y98.436 E116.93204
M205 X10 Y10
G0 F6000 X93.345 Y97.87
M205 X8 Y8
G1 F1200 X115.706 Y120.231 E118.50973
M205 X10 Y10
G0 F6000 X115.706 Y119.665
M205 X8 Y8
G1 F1200 X93.345 Y97.304 E120.08742
M205 X10 Y10
G0 F6000 X93.345 Y96.739
M205 X8 Y8
G1 F1200 X115.706 Y119.1 E121.66511
M205 X10 Y10
G0 F6000 X115.706 Y118.534
M205 X8 Y8
G1 F1200 X93.345 Y96.173 E123.2428
M205 X10 Y10
G0 F6000 X93.345 Y95.607
M205 X8 Y8
G1 F1200 X115.706 Y117.968 E124.82049
M205 X10 Y10
G0 F6000 X115.706 Y117.403
M205 X8 Y8
G1 F1200 X93.345 Y95.042 E126.39818
M205 X10 Y10
G0 F6000 X93.345 Y94.476
M205 X8 Y8
G1 F1200 X115.706 Y116.837 E127.97587
M205 X10 Y10
G0 F6000 X115.706 Y116.271
M205 X8 Y8
G1 F1200 X93.345 Y93.91 E129.55356
M205 X10 Y10
G0 F6000 X93.345 Y93.345
M205 X8 Y8
G1 F1200 X115.706 Y115.706 E131.13125
M205 X10 Y10
G0 F6000 X115.706 Y115.14
M205 X8 Y8
G1 F1200 X93.345 Y92.779 E132.70894
M205 X10 Y10
G0 F6000 X93.345 Y92.213
M205 X8 Y8
G1 F1200 X115.706 Y114.574 E134.28663
M205 X10 Y10
G0 F6000 X115.706 Y114.008
M205 X8 Y8
G1 F1200 X93.345 Y91.648 E135.86428
M205 X10 Y10
G0 F6000 X93.345 Y91.082
M205 X8 Y8
G1 F1200 X115.706 Y113.443 E137.44197
M205 X10 Y10
G0 F6000 X115.706 Y112.877
M205 X8 Y8
G1 F1200 X93.345 Y90.516 E139.01966
M205 X10 Y10
G0 F6000 X93.345 Y89.951
M205 X8 Y8
G1 F1200 X115.706 Y112.311 E140.59731
M205 X10 Y10
G0 F6000 X115.706 Y111.746
M205 X8 Y8
G1 F1200 X93.345 Y89.385 E142.175
M205 X10 Y10
G0 F6000 X93.345 Y88.819
M205 X8 Y8
G1 F1200 X115.706 Y111.18 E143.75269
M205 X10 Y10
G0 F6000 X115.706 Y110.614
M205 X8 Y8
G1 F1200 X93.345 Y88.253 E145.33038
M205 X10 Y10
G0 F6000 X93.345 Y87.688
M205 X8 Y8
G1 F1200 X115.706 Y110.049 E146.90807
M205 X10 Y10
G0 F6000 X115.706 Y109.483
M205 X8 Y8
G1 F1200 X93.345 Y87.122 E148.48576
M205 X10 Y10
G0 F6000 X93.345 Y86.556
M205 X8 Y8
G1 F1200 X115.706 Y108.917 E150.06345
M205 X10 Y10
G0 F6000 X115.706 Y108.352
M205 X8 Y8
G1 F1200 X93.345 Y85.991 E151.64114
M205 X10 Y10
G0 F6000 X93.345 Y85.425
M205 X8 Y8
G1 F1200 X115.706 Y107.786 E153.21883
M205 X10 Y10
G0 F6000 X115.706 Y107.22
M205 X8 Y8
G1 F1200 X93.345 Y84.859 E154.79652
M205 X10 Y10
G0 F6000 X93.345 Y84.294
M205 X8 Y8
G1 F1200 X115.706 Y106.655 E156.37421
M205 X10 Y10
G0 F6000 X115.706 Y106.089
M205 X8 Y8
G1 F1200 X93.345 Y83.728 E157.9519
M205 X10 Y10
G0 F6000 X93.345 Y83.162
M205 X8 Y8
G1 F1200 X115.706 Y105.523 E159.52958
M205 X10 Y10
G0 F6000 X115.706 Y104.957
M205 X8 Y8
G1 F1200 X93.345 Y82.597 E161.10724
M205 X10 Y10
G0 F6000 X93.345 Y82.031
M205 X8 Y8
G1 F1200 X115.706 Y104.392 E162.68493
M205 X10 Y10
G0 F6000 X115.706 Y103.826
M205 X8 Y8
G1 F1200 X93.345 Y81.465 E164.26262
M205 X10 Y10
G0 F6000 X93.345 Y80.9
M205 X8 Y8
G1 F1200 X115.706 Y103.26 E165.84027
M205 X10 Y10
G0 F6000 X115.706 Y102.695
M205 X8 Y8
G1 F1200 X93.345 Y80.334 E167.41796
M205 X10 Y10
G0 F6000 X93.345 Y79.768
M205 X8 Y8
G1 F1200 X115.706 Y102.129 E168.99565
M205 X10 Y10
G0 F6000 X115.706 Y101.563
M205 X8 Y8
G1 F1200 X93.345 Y79.203 E170.5733
M205 X10 Y10
G0 F6000 X93.345 Y78.637
M205 X8 Y8
G1 F1200 X115.706 Y100.998 E172.15099
M205 X10 Y10
G0 F6000 X115.706 Y100.432
M205 X8 Y8
G1 F1200 X93.345 Y78.071 E173.72868
M205 X10 Y10
G0 F6000 X93.345 Y77.505
M205 X8 Y8
G1 F1200 X115.706 Y99.866 E175.30637
M205 X10 Y10
G0 F6000 X115.706 Y99.301
M205 X8 Y8
G1 F1200 X93.345 Y76.94 E176.88406
M205 X10 Y10
G0 F6000 X93.345 Y76.374
M205 X8 Y8
G1 F1200 X115.706 Y98.735 E178.46175
M205 X10 Y10
G0 F6000 X115.706 Y98.169
M205 X8 Y8
G1 F1200 X93.345 Y75.808 E180.03944
M205 X10 Y10
G0 F6000 X93.345 Y75.243
M205 X8 Y8
G1 F1200 X115.706 Y97.604 E181.61713
M205 X10 Y10
G0 F6000 X115.706 Y97.038
M205 X8 Y8
G1 F1200 X93.847 Y75.179 E183.1594
M205 X10 Y10
G0 F6000 X94.412 Y75.179
M205 X8 Y8
G1 F1200 X115.706 Y96.472 E184.66177
M205 X10 Y10
G0 F6000 X115.706 Y95.907
M205 X8 Y8
G1 F1200 X94.978 Y75.179 E186.12424
M205 X10 Y10
G0 F6000 X95.544 Y75.179
M205 X8 Y8
G1 F1200 X115.706 Y95.341 E187.54678
M205 X10 Y10
G0 F6000 X115.706 Y94.775
M205 X8 Y8
G1 F1200 X96.109 Y75.179 E188.92942
M205 X10 Y10
G0 F6000 X96.675 Y75.179
M205 X8 Y8
G1 F1200 X115.706 Y94.209 E190.27213
M205 X10 Y10
G0 F6000 X115.706 Y93.644
M205 X8 Y8
G1 F1200 X97.241 Y75.179 E191.57493
M205 X10 Y10
G0 F6000 X97.807 Y75.179
M205 X8 Y8
G1 F1200 X115.706 Y93.078 E192.8378
M205 X10 Y10
G0 F6000 X115.706 Y92.512
M205 X8 Y8
G1 F1200 X98.372 Y75.179 E194.06077
M205 X10 Y10
G0 F6000 X98.938 Y75.179
M205 X8 Y8
G1 F1200 X115.706 Y91.947 E195.24385
M205 X10 Y10
G0 F6000 X115.706 Y91.381
M205 X8 Y8
G1 F1200 X99.504 Y75.179 E196.38699
M205 X10 Y10
G0 F6000 X100.069 Y75.179
M205 X8 Y8
G1 F1200 X115.706 Y90.815 E197.49022
M205 X10 Y10
G0 F6000 X115.706 Y90.25
M205 X8 Y8
G1 F1200 X100.635 Y75.179 E198.55357
M205 X10 Y10
G0 F6000 X101.201 Y75.179
M205 X8 Y8
G1 F1200 X115.706 Y89.684 E199.57697
M205 X10 Y10
G0 F6000 X115.706 Y89.118
M205 X8 Y8
G1 F1200 X101.766 Y75.179 E200.56048
M205 X10 Y10
G0 F6000 X102.332 Y75.179
M205 X8 Y8
G1 F1200 X115.706 Y88.553 E201.50409
M205 X10 Y10
G0 F6000 X115.706 Y87.987
M205 X8 Y8
G1 F1200 X102.898 Y75.179 E202.40776
M205 X10 Y10
G0 F6000 X103.463 Y75.179
M205 X8 Y8
G1 F1200 X115.706 Y87.421 E203.27153
M205 X10 Y10
G0 F6000 X115.706 Y86.856
M205 X8 Y8
G1 F1200 X104.029 Y75.179 E204.09541
M205 X10 Y10
G0 F6000 X104.595 Y75.179
M205 X8 Y8
G1 F1200 X115.706 Y86.29 E204.87935
M205 X10 Y10
G0 F6000 X115.706 Y85.724
M205 X8 Y8
G1 F1200 X105.16 Y75.179 E205.62339
M205 X10 Y10
G0 F6000 X105.726 Y75.179
M205 X8 Y8
G1 F1200 X115.706 Y85.158 E206.3275
M205 X10 Y10
G0 F6000 X115.706 Y84.593
M205 X8 Y8
G1 F1200 X106.292 Y75.179 E206.99171
M205 X10 Y10
G0 F6000 X106.857 Y75.179
M205 X8 Y8
G1 F1200 X115.706 Y84.027 E207.61602
M205 X10 Y10
G0 F6000 X115.706 Y83.461
M205 X8 Y8
G1 F1200 X107.423 Y75.179 E208.20039
M205 X10 Y10
G0 F6000 X107.989 Y75.179
M205 X8 Y8
G1 F1200 X115.706 Y82.896 E208.74487
M205 X10 Y10
G0 F6000 X115.706 Y82.33
M205 X8 Y8
G1 F1200 X108.555 Y75.179 E209.24941
M205 X10 Y10
G0 F6000 X109.12 Y75.179
M205 X8 Y8
G1 F1200 X115.706 Y81.764 E209.71405
M205 X10 Y10
G0 F6000 X115.706 Y81.199
M205 X8 Y8
G1 F1200 X109.686 Y75.179 E210.1388
M205 X10 Y10
G0 F6000 X110.252 Y75.179
M205 X8 Y8
G1 F1200 X115.706 Y80.633 E210.52361
M205 X10 Y10
G0 F6000 X115.706 Y80.067
M205 X8 Y8
G1 F1200 X110.817 Y75.179 E210.86852
M205 X10 Y10
G0 F6000 X111.383 Y75.179
M205 X8 Y8
G1 F1200 X115.706 Y79.502 E211.17353
M205 X10 Y10
G0 F6000 X115.706 Y78.936
M205 X8 Y8
G1 F1200 X111.949 Y75.179 E211.4386
M205 X10 Y10
G0 F6000 X112.514 Y75.179
M205 X8 Y8
G1 F1200 X115.706 Y78.37 E211.66378
M205 X10 Y10
G0 F6000 X115.706 Y77.805
M205 X8 Y8
G1 F1200 X113.08 Y75.179 E211.84906
M205 X10 Y10
G0 F6000 X113.646 Y75.179
M205 X8 Y8
G1 F1200 X115.706 Y77.239 E211.9944
M205 X10 Y10
G0 F6000 X115.706 Y76.673
M205 X8 Y8
G1 F1200 X114.211 Y75.179 E212.09985
M205 X10 Y10
G0 F6000 X114.777 Y75.179
M205 X8 Y8
G1 F1200 X115.706 Y76.108 E212.1654
M205 X10 Y10
G0 F6000 X115.706 Y75.542
M104 S200
M205 X8 Y8
